T: Myxamatosis
M: 9/8
L: 1/8
K: Gmix
|: EEF GE GF | c^Ac BA GF | EFE GE GF |  dBd c^A BA |EEF GE GF | c^Ac BA GF | EFE GE GF |1 EGE Fc ^AG :|
